src/asset/img/unsorted/sprites/DefineSprite_12/1.svg

<svg xmlns:xlink="http://www.w3.org/1999/xlink" height="54.95" width="56.6" xmlns="http://www.w3.org/2000/svg"><g transform="translate(3.5 3.5)"><use height="54.95" transform="translate(-3.5 -3.5)" width="56.6" xlink:href="#a"/><use height="26.85" transform="translate(12.7 8.4)" width="26.2" xlink:href="#b"/></g><defs><linearGradient gradientTransform="matrix(.0139 0 0 .0268 13.4 23.95)" gradientUnits="userSpaceOnUse" id="e" spreadMethod="pad" x1="-819.2" x2="819.2"><stop offset="0" stop-color="#ffb300"/><stop offset="1" stop-color="#fff"/></linearGradient><linearGradient gradientTransform="matrix(.0165 0 0 1 33.35 -113.15)" gradientUnits="userSpaceOnUse" id="f" spreadMethod="pad" x1="-819.2" x2="819.2"><stop offset="0" stop-color="#e6b700"/><stop offset="1" stop-color="#ffefcc"/></linearGradient><linearGradient gradientTransform="matrix(.0062 -.0062 .0045 .0045 11.45 14.85)" gradientUnits="userSpaceOnUse" id="c" spreadMethod="pad" x1="-819.2" x2="819.2"><stop offset=".008" stop-color="#774700"/><stop offset="1" stop-color="#c48800"/></linearGradient><path d="m10 16.95-.5-.5 1.15 1.15-.65-.65M22.3 4.6q-1.9-1.9-4.65-1.9-2.75 0-4.65 1.9-1.95 1.95-1.95 4.7T13 13.95q1.9 1.95 4.65 1.95 2.75 0 4.65-1.95 1.95-1.9 1.95-4.65 0-2.75-1.95-4.7m3-2.95q3.2 3.15 3.2 7.65t-3.2 7.65q-3.15 3.2-7.65 3.2-2.4 0-4.4-.9l-4.15 4.1-.65.9Q7.4 25.3 5.95 25.3q-1.5 0-2.55-1.05-1.1-1.05-1.1-2.55 0-1.5 1.1-2.55h.05l-.05-.05 4.7-4.7q-1.3-2.3-1.3-5.1 0-4.5 3.2-7.65 3.15-3.2 7.65-3.2 4.45 0 7.65 3.2" fill="url(#c)" fill-rule="evenodd" transform="translate(-2.3 1.55)" id="d"/><use height="26.85" width="26.2" xlink:href="#d" id="b"/><g id="a"><path d="M49.4 8.9q.35.7.15 1.5-4.65 15.25-10.3 23.2-4.9 6.9-13.15 13.9-.55.45-1.3.45t-1.3-.45q-8.25-7-13.1-13.9Q4.7 25.65.1 10.4q-.25-.8.15-1.5.35-.75 1.1-1L24.15.1q.65-.2 1.3 0l22.8 7.8q.75.25 1.15 1" fill-rule="evenodd" transform="translate(3.5 3.5)"/><path d="M52.9 12.4q-.4-.75-1.15-1l-22.8-7.8q-.65-.2-1.3 0l-22.8 7.8q-.75.25-1.1 1-.4.7-.15 1.5 4.6 15.25 10.3 23.2Q18.75 44 27 51q.55.45 1.3.45t1.3-.45q8.25-7 13.15-13.9 5.65-7.95 10.3-23.2.2-.8-.15-1.5Z" fill="none" stroke="#5e4100" stroke-linecap="round" stroke-linejoin="round" stroke-width="7"/><path d="M2 9.8 24.8 2l22.8 7.8q-4.5 14.9-10 22.65-4.75 6.7-12.8 13.5-8.05-6.8-12.8-13.5Q6.5 24.7 2 9.8" fill-rule="evenodd" transform="translate(3.5 3.5)"/><path d="m5.5 13.3 22.8-7.8" fill="none" stroke="#fff" stroke-linecap="round" stroke-linejoin="round" stroke-width="4"/><path d="M51.1 13.3q-4.5 14.9-10 22.65-4.75 6.7-12.8 13.5" fill="none" stroke="#cca300" stroke-linecap="round" stroke-linejoin="round" stroke-width="4"/><path d="m28.3 5.5 22.8 7.8M28.3 49.45q-8.05-6.8-12.8-13.5Q10 28.2 5.5 13.3Z" fill="none" stroke="#e6b700" stroke-linecap="round" stroke-linejoin="round" stroke-width="4"/><path d="M24.8 2v43.95q-8.05-6.8-12.8-13.5Q6.5 24.7 2 9.8L24.8 2" fill="url(#e)" fill-rule="evenodd" transform="translate(3.5 3.5)"/><path d="m24.8 2 22.8 7.8q-4.5 14.9-10 22.65-4.75 6.7-12.8 13.5V2" fill="url(#f)" fill-rule="evenodd" transform="translate(3.5 3.5)"/></g></defs></svg>

<?xml version="1.0" encoding="UTF-8" standalone="no"?>
<svg xmlns:xlink="http://www.w3.org/1999/xlink" height="54.95px" width="56.6px" xmlns="http://www.w3.org/2000/svg">
  <g transform="matrix(1.0, 0.0, 0.0, 1.0, 3.5, 3.5)">
    <use height="54.95" transform="matrix(1.0, 0.0, 0.0, 1.0, -3.5, -3.5)" width="56.6" xlink:href="#shape0"/>
    <use height="26.85" transform="matrix(1.0, 0.0, 0.0, 1.0, 12.7, 8.4)" width="26.2" xlink:href="#sprite0"/>
  </g>
  <defs>
    <g id="shape0" transform="matrix(1.0, 0.0, 0.0, 1.0, 3.5, 3.5)">
      <path d="M49.4 8.9 Q49.75 9.6 49.55 10.4 44.9 25.65 39.25 33.6 34.35 40.5 26.1 47.5 25.55 47.95 24.8 47.95 24.05 47.95 23.5 47.5 15.25 40.5 10.4 33.6 4.7 25.65 0.1 10.4 -0.15 9.6 0.25 8.9 0.6 8.15 1.35 7.9 L24.15 0.1 Q24.8 -0.1 25.45 0.1 L48.25 7.9 Q49.0 8.15 49.4 8.9" fill="#000000" fill-rule="evenodd" stroke="none"/>
      <path d="M49.4 8.9 Q49.0 8.15 48.25 7.9 L25.45 0.1 Q24.8 -0.1 24.15 0.1 L1.35 7.9 Q0.6 8.15 0.25 8.9 -0.15 9.6 0.1 10.4 4.7 25.65 10.4 33.6 15.25 40.5 23.5 47.5 24.05 47.95 24.8 47.95 25.55 47.95 26.1 47.5 34.35 40.5 39.25 33.6 44.9 25.65 49.55 10.4 49.75 9.6 49.4 8.9 Z" fill="none" stroke="#5e4100" stroke-linecap="round" stroke-linejoin="round" stroke-width="7.0"/>
      <path d="M2.0 9.8 L24.8 2.0 47.6 9.8 Q43.1 24.7 37.6 32.45 32.85 39.15 24.8 45.95 16.75 39.15 12.0 32.45 6.5 24.7 2.0 9.8" fill="#000000" fill-rule="evenodd" stroke="none"/>
      <path d="M2.0 9.8 L24.8 2.0" fill="none" stroke="#ffffff" stroke-linecap="round" stroke-linejoin="round" stroke-width="4.0"/>
      <path d="M47.6 9.8 Q43.1 24.7 37.6 32.45 32.85 39.15 24.8 45.95" fill="none" stroke="#cca300" stroke-linecap="round" stroke-linejoin="round" stroke-width="4.0"/>
      <path d="M24.8 2.0 L47.6 9.8 M24.8 45.95 Q16.75 39.15 12.0 32.45 6.5 24.7 2.0 9.8 Z" fill="none" stroke="#e6b700" stroke-linecap="round" stroke-linejoin="round" stroke-width="4.0"/>
      <path d="M24.8 2.0 L24.8 45.95 Q16.75 39.15 12.0 32.45 6.5 24.7 2.0 9.8 L24.8 2.0" fill="url(#gradient0)" fill-rule="evenodd" stroke="none"/>
      <path d="M24.8 2.0 L47.6 9.8 Q43.1 24.7 37.6 32.45 32.85 39.15 24.8 45.95 L24.8 2.0" fill="url(#gradient1)" fill-rule="evenodd" stroke="none"/>
    </g>
    <linearGradient gradientTransform="matrix(0.0139, 0.0, 0.0, 0.0268, 13.4, 23.95)" gradientUnits="userSpaceOnUse" id="gradient0" spreadMethod="pad" x1="-819.2" x2="819.2">
      <stop offset="0.0" stop-color="#ffb300"/>
      <stop offset="1.0" stop-color="#ffffff"/>
    </linearGradient>
    <linearGradient gradientTransform="matrix(0.0165, 0.0, 0.0, 1.0, 33.35, -113.15)" gradientUnits="userSpaceOnUse" id="gradient1" spreadMethod="pad" x1="-819.2" x2="819.2">
      <stop offset="0.0" stop-color="#e6b700"/>
      <stop offset="1.0" stop-color="#ffefcc"/>
    </linearGradient>
    <g id="sprite0" transform="matrix(1.0, 0.0, 0.0, 1.0, -2.3, 1.55)">
      <use height="26.85" transform="matrix(1.0, 0.0, 0.0, 1.0, 2.3, -1.55)" width="26.2" xlink:href="#shape1"/>
    </g>
    <g id="shape1" transform="matrix(1.0, 0.0, 0.0, 1.0, -2.3, 1.55)">
      <path d="M10.0 16.95 L9.5 16.45 10.65 17.6 10.0 16.95 M22.3 4.6 Q20.4 2.7 17.65 2.7 14.9 2.7 13.0 4.6 11.05 6.55 11.05 9.3 11.05 12.05 13.0 13.95 14.9 15.9 17.65 15.9 20.4 15.9 22.3 13.95 24.25 12.05 24.25 9.3 24.25 6.55 22.3 4.6 M25.3 1.65 Q28.5 4.8 28.5 9.3 28.5 13.8 25.3 16.95 22.15 20.15 17.65 20.15 15.25 20.15 13.25 19.25 L9.1 23.35 8.45 24.25 Q7.4 25.3 5.95 25.3 4.45 25.3 3.4 24.25 2.3 23.2 2.3 21.7 2.3 20.2 3.4 19.15 L3.45 19.15 3.4 19.1 8.1 14.4 Q6.8 12.1 6.8 9.3 6.8 4.8 10.0 1.65 13.15 -1.55 17.65 -1.55 22.1 -1.55 25.3 1.65" fill="url(#gradient2)" fill-rule="evenodd" stroke="none"/>
    </g>
    <linearGradient gradientTransform="matrix(0.0062, -0.0062, 0.0045, 0.0045, 11.45, 14.85)" gradientUnits="userSpaceOnUse" id="gradient2" spreadMethod="pad" x1="-819.2" x2="819.2">
      <stop offset="0.00784313725490196" stop-color="#774700"/>
      <stop offset="1.0" stop-color="#c48800"/>
    </linearGradient>
  </defs>
</svg>
